X:1
T:Polska e Per Gudmundsson
R:Polska
O:Rättvik, Dalarna
S:efter Per Gudmundsson
M:3/4
L:1/16
K:G
(E2|A2)>B2 c2dc B2(G2|A2)>B2 cBcde4 |d4g2b2 a2>g2|1f2ed e6:|2f2ed e6e2|
|:a4abaf d2>f2| a2>b2 a2gf g3{g2agfg}|g4b2a2 g2>g2 |f2>g2 f2d2e4|
c4efef g2>b2|b2a2 (3a2b2a2 e2>d2|e2d2 c2>d2 c2BA|1^G2B2A6e2:|2^G2B2A8|]

